actions/22x22-dark/insert-footnote.svg

<svg xmlns="http://www.w3.org/2000/svg" viewBox="0 0 22 22">
 <defs id="defs3051">
   <style type="text/css" id="current-color-scheme">
     .ColorScheme-Text {
       color:#f2f2f2;
     }
     </style>
 </defs>
   <path
      style="fill:currentColor;fill-opacity:1;stroke:none"
      d="m4 3v16h1 6v-1h-6v-14h12v8h1v-9h-1-12zm2 3v1h10v-1zm0 2v1h6v-1zm0 5v1h7v-1z"
      class="ColorScheme-Text" />
 <defs id="defs3051">
   <style type="text/css" id="current-color-scheme">
     .ColorScheme-Text {
       color:#3daee9;
     }
     </style>
 </defs>
   <path
      style="fill:currentColor;fill-opacity:1;stroke:none"
      d="m16 13-1 2h1v4h1v-6zm-10 2v1h7v-1z"
      class="ColorScheme-Text" />
</svg>

<svg xmlns="http://www.w3.org/2000/svg" viewBox="0 0 22 22">
  <defs id="defs3051">
    <style type="text/css" id="current-color-scheme">
      .ColorScheme-Text {
        color:#f2f2f2;
      }
      .ColorScheme-Highlight {
        color:#3daee9;
      }
      </style>
  </defs>
 <path 
     style="fill:currentColor;fill-opacity:1;stroke:none" 
     d="M 4 3 L 4 19 L 5 19 L 11 19 L 11 18 L 5 18 L 5 4 L 17 4 L 17 12 L 18 12 L 18 3 L 17 3 L 5 3 L 4 3 z M 6 6 L 6 7 L 16 7 L 16 6 L 6 6 z M 6 8 L 6 9 L 12 9 L 12 8 L 6 8 z M 6 13 L 6 14 L 13 14 L 13 13 L 6 13 z "
     class="ColorScheme-Text"
     />
 <path 
     style="fill:currentColor;fill-opacity:1;stroke:none" 
     d="M 16 13 L 15 15 L 16 15 L 16 19 L 17 19 L 17 13 L 16 13 z M 6 15 L 6 16 L 13 16 L 13 15 L 6 15 z "
     class="ColorScheme-Highlight"
     />
</svg>
